storage/app/icons/phosphoricons/fill/file-zip-fill.svg

<svg xmlns="http://www.w3.org/2000/svg" fill="currentColor" viewBox="0 0 256 256"><path d="M184 144h-16a8 8 0 0 0-8 8v55.73a8.17 8.17 0 0 0 7.47 8.25 8 8 0 0 0 8.53-8v-8h7.4c15.24 0 28.14-11.92 28.59-27.15A28 28 0 0 0 184 144m-.35 40H176v-24h8a12 12 0 0 1 12 13.16A12.25 12.25 0 0 1 183.65 184M136 152v55.73a8.17 8.17 0 0 1-7.47 8.25 8 8 0 0 1-8.53-8v-55.71a8.17 8.17 0 0 1 7.47-8.25A8 8 0 0 1 136 152m-40 56.53a8.17 8.17 0 0 1-8.27 7.47h-31.5a8.27 8.27 0 0 1-6-2.5 8 8 0 0 1-1.18-9.5l25.16-44H56.27a8.17 8.17 0 0 1-8.27-7.47 8 8 0 0 1 8-8.53h31.77a8.27 8.27 0 0 1 6 2.5A8 8 0 0 1 95 156l-25.21 44H88a8 8 0 0 1 8 8.53M213.66 82.34l-56-56A8 8 0 0 0 152 24H56a16 16 0 0 0-16 16v76a4 4 0 0 0 4 4h168a4 4 0 0 0 4-4V88a8 8 0 0 0-2.34-5.66M152 88V44l44 44Z"/></svg>

<svg xmlns="http://www.w3.org/2000/svg" viewBox="0 0 256 256" fill="currentColor"><path d="M184,144H168a8,8,0,0,0-8,8v55.73a8.17,8.17,0,0,0,7.47,8.25,8,8,0,0,0,8.53-8v-8h7.4c15.24,0,28.14-11.92,28.59-27.15A28,28,0,0,0,184,144Zm-.35,40H176V160h8A12,12,0,0,1,196,173.16,12.25,12.25,0,0,1,183.65,184ZM136,152v55.73a8.17,8.17,0,0,1-7.47,8.25,8,8,0,0,1-8.53-8V152.27a8.17,8.17,0,0,1,7.47-8.25A8,8,0,0,1,136,152ZM96,208.53A8.17,8.17,0,0,1,87.73,216H56.23a8.27,8.27,0,0,1-6-2.5A8,8,0,0,1,49.05,204l25.16-44H56.27A8.17,8.17,0,0,1,48,152.53,8,8,0,0,1,56,144H87.77a8.27,8.27,0,0,1,6,2.5A8,8,0,0,1,95,156L69.79,200H88A8,8,0,0,1,96,208.53ZM213.66,82.34l-56-56A8,8,0,0,0,152,24H56A16,16,0,0,0,40,40v76a4,4,0,0,0,4,4H212a4,4,0,0,0,4-4V88A8,8,0,0,0,213.66,82.34ZM152,88V44l44,44Z"/></svg>
